dist/img/svg/physics.svg

<svg width="45" height="46" viewBox="0 0 45 46" fill="none" xmlns="http://www.w3.org/2000/svg">
<path d="M22.5004 27.6899C25.3683 27.6899 27.6932 25.5972 27.6932 23.0158C27.6932 20.4344 25.3683 18.3418 22.5004 18.3418C19.6325 18.3418 17.3076 20.4344 17.3076 23.0158C17.3076 25.5972 19.6325 27.6899 22.5004 27.6899Z" fill="#368CBF"/>
<path d="M41.5476 25.3474C40.889 24.5729 40.1503 23.7935 39.3417 23.0159C40.1504 22.2383 40.889 21.4589 41.5476 20.6844C43.096 18.8638 44.1389 17.1476 44.6475 15.5833C45.0567 14.3251 45.3151 12.492 44.223 10.9049C42.7465 8.75932 39.7335 8.30894 37.4659 8.30894C35.5593 8.30894 33.3818 8.60967 31.0402 9.17647C30.8092 8.48993 30.5603 7.82955 30.2933 7.2002C29.385 5.05902 28.3103 3.35507 27.099 2.14351C25.7021 0.746523 24.0969 0 22.4568 0H22.4463C20.3723 0 18.7797 1.17743 17.8091 2.15493C16.6023 3.3701 15.5345 5.0815 14.6353 7.22658C14.3763 7.8445 14.1349 8.49219 13.9107 9.16482C11.5877 8.60576 9.42739 8.30924 7.53408 8.30924C5.26641 8.30924 2.25337 8.75984 0.776993 10.9055C-0.315089 12.4925 -0.0567238 14.3261 0.352452 15.5844C0.861083 17.1487 1.90406 18.866 3.45234 20.6865C4.11069 21.4605 4.8488 22.2396 5.65705 23.0169C4.8488 23.794 4.11069 24.573 3.45234 25.3471C1.90406 27.1676 0.861083 28.8838 0.352452 30.4481C-0.0566403 31.7063 -0.315173 33.5394 0.776993 35.1265C2.25345 37.2721 5.26649 37.7225 7.53408 37.7225C9.44142 37.7225 11.6197 37.4215 13.9623 36.8543C14.1927 37.538 14.4407 38.1958 14.7068 38.8229C15.615 40.9641 16.6898 42.66 17.901 43.8716C19.2977 45.2688 20.9029 46 22.5428 46H22.5537C24.6278 46 26.2202 44.8374 27.191 43.86C28.3978 42.6448 29.4656 40.9482 30.3647 38.8031C30.6225 38.188 30.8628 37.5434 31.0863 36.8739C33.4103 37.4341 35.5717 37.7314 37.4659 37.7314C37.4661 37.7314 37.4661 37.7314 37.4664 37.7314C39.7339 37.7314 42.7467 37.2765 44.223 35.1311C45.3151 33.544 45.0567 31.7066 44.6475 30.4483C44.139 28.884 43.096 27.1679 41.5476 25.3474ZM37.4659 10.9227C38.7184 10.9227 40.941 11.0992 41.7545 12.2812C42.6739 13.6174 41.7347 16.1648 39.2421 19.0956C38.6569 19.7836 38.0014 20.4769 37.2849 21.17C35.9313 20.031 34.4387 18.9081 32.835 17.8228C32.6141 15.672 32.2588 13.6143 31.7793 11.7065C33.9029 11.191 35.8352 10.9227 37.4659 10.9227ZM29.037 33.5591C29.0125 33.5513 28.9881 33.5438 28.9636 33.536C27.906 33.1986 26.8255 32.811 25.7336 32.3785C26.5178 31.9811 27.3019 31.5644 28.0829 31.129C28.6262 30.8262 29.1614 30.5178 29.6881 30.2047C29.5138 31.3671 29.296 32.4887 29.037 33.5591ZM26.5538 28.9071C25.2173 29.6522 23.8581 30.3466 22.4984 30.9811C21.1397 30.3462 19.7816 29.6516 18.4461 28.9071C17.2352 28.232 16.0673 27.5301 14.951 26.8094C14.8552 25.576 14.8041 24.3128 14.8012 23.0304C14.7982 21.7421 14.8437 20.4726 14.9347 19.233C16.0559 18.5085 17.2293 17.8031 18.4461 17.1246C19.7818 16.38 21.1402 15.6859 22.4991 15.0518C23.8586 15.6863 25.2176 16.3807 26.554 17.1257C27.7651 17.8009 28.9331 18.5029 30.0495 19.2238C30.1451 20.4556 30.1959 21.717 30.1989 22.9973C30.2019 24.2872 30.1563 25.558 30.0652 26.7988C28.9438 27.5233 27.7706 28.2287 26.5538 28.9071ZM16.0021 33.5424C15.7422 32.4846 15.5224 31.3766 15.3448 30.2288C15.861 30.5351 16.3852 30.8369 16.9171 31.1334C17.6952 31.5673 18.4763 31.9824 19.2576 32.3787C18.1686 32.8091 17.0909 33.1953 16.0363 33.5317C16.0249 33.5352 16.0135 33.5387 16.0021 33.5424ZM11.928 24.717C11.1729 24.1556 10.4528 23.5874 9.77052 23.0159C10.4506 22.446 11.1686 21.8796 11.9211 21.3199C11.9042 21.8875 11.8961 22.4591 11.8975 23.034C11.8988 23.5983 11.9091 24.1595 11.928 24.717ZM15.9604 12.4767C15.9857 12.4847 16.011 12.4925 16.0363 12.5007C17.0923 12.8375 18.1715 13.2242 19.2618 13.6555C18.4791 14.0522 17.6966 14.4681 16.9171 14.9027C16.3735 15.2058 15.838 15.5143 15.3109 15.8275C15.4847 14.6665 15.702 13.546 15.9604 12.4767ZM28.9999 12.4887C29.2599 13.5485 29.4797 14.6585 29.6571 15.8085C29.1404 15.5019 28.6155 15.1997 28.083 14.9028C27.3031 14.4681 26.5204 14.052 25.7373 13.6551C26.828 13.2238 27.9074 12.837 28.9637 12.5C28.9757 12.4962 28.9877 12.4925 28.9999 12.4887ZM33.0722 21.3164C33.8267 21.8776 34.5466 22.4454 35.2283 23.0167C34.5485 23.5863 33.8308 24.1524 33.0786 24.7119C33.0956 24.1429 33.1037 23.57 33.1024 22.9938C33.1012 22.4314 33.091 21.872 33.0722 21.3164ZM17.3521 8.15019C18.7996 4.69674 20.7062 2.63305 22.4567 2.62974C24.2024 2.62974 26.1179 4.68644 27.5805 8.13463C27.8252 8.71159 28.0536 9.31763 28.2659 9.94825C26.3998 10.5318 24.4621 11.262 22.4997 12.1238C20.5205 11.2546 18.5666 10.5195 16.6856 9.93352C16.8921 9.31387 17.1141 8.7179 17.3521 8.15019ZM3.24549 12.2812C4.05892 11.0992 6.28158 10.9227 7.53408 10.9227C9.15425 10.9227 11.0719 11.1877 13.1795 11.6969C12.7047 13.6117 12.3561 15.6777 12.1433 17.8375C10.5479 18.9183 9.06256 20.0362 7.7152 21.17C6.99864 20.4769 6.34321 19.7836 5.75809 19.0956C3.26529 16.1649 2.3261 13.6174 3.24549 12.2812ZM7.53399 35.1091C6.2815 35.1091 4.05892 34.9326 3.24549 33.7505C2.3261 32.4144 3.26529 29.8669 5.75792 26.936C6.34254 26.2486 6.99756 25.5558 7.71345 24.8632C9.06765 26.0032 10.5612 27.1272 12.166 28.2136C12.3872 30.3628 12.7426 32.4186 13.2225 34.3248C11.0981 34.8406 9.16527 35.1091 7.53399 35.1091ZM27.6478 37.8737C26.2003 41.3272 24.2937 43.3863 22.5476 43.3863H22.5435C20.7976 43.3863 18.882 41.335 17.4194 37.8869C17.1758 37.3127 16.9485 36.7097 16.7369 36.0825C18.6004 35.4997 20.5349 34.7707 22.4942 33.9105C24.4739 34.7806 26.4284 35.5167 28.31 36.1037C28.1047 36.7185 27.8842 37.31 27.6478 37.8737ZM41.7545 33.7548C40.9411 34.9369 38.7188 35.1178 37.4664 35.1178C37.4663 35.1178 37.4661 35.1178 37.4661 35.1178C35.8453 35.1178 33.9269 34.8507 31.8187 34.3401C32.2941 32.4238 32.6432 30.3562 32.8563 28.1945C34.4514 27.114 35.9365 25.9963 37.2838 24.8627C38.0007 25.5562 38.6567 26.2499 39.2421 26.9383C41.7347 29.869 42.6739 32.4187 41.7545 33.7548Z" fill="#368CBF"/>
</svg>

<svg width="45" height="46" viewBox="0 0 45 46" fill="none" xmlns="http://www.w3.org/2000/svg"><path d="M22.5 27.69c2.868 0 5.193-2.093 5.193-4.674 0-2.582-2.325-4.674-5.193-4.674-2.867 0-5.192 2.092-5.192 4.674 0 2.581 2.325 4.674 5.192 4.674z" fill="#368CBF"/><path d="M41.548 25.347a32.145 32.145 0 00-2.206-2.331 32.123 32.123 0 002.206-2.332c1.548-1.82 2.59-3.536 3.1-5.1.409-1.259.667-3.092-.425-4.68-1.477-2.145-4.49-2.595-6.757-2.595-1.907 0-4.084.3-6.426.867a27.611 27.611 0 00-.747-1.976c-.908-2.14-1.983-3.845-3.193-5.056C25.702.747 24.097 0 22.457 0h-.01c-2.075 0-3.667 1.177-4.638 2.155-1.207 1.215-2.275 2.927-3.174 5.072-.259.617-.5 1.265-.724 1.938-2.323-.56-4.484-.856-6.377-.856-2.268 0-5.28.45-6.757 2.597-1.092 1.586-.834 3.42-.425 4.678.51 1.565 1.552 3.282 3.1 5.102a32.175 32.175 0 002.205 2.33 32.111 32.111 0 00-2.205 2.331c-1.548 1.82-2.59 3.537-3.1 5.101-.409 1.258-.667 3.091.425 4.678 1.476 2.146 4.49 2.596 6.757 2.596 1.907 0 4.086-.3 6.428-.868.23.684.479 1.342.745 1.969.908 2.141 1.983 3.837 3.194 5.049C19.298 45.269 20.903 46 22.543 46h.01c2.075 0 3.667-1.163 4.638-2.14 1.207-1.215 2.275-2.912 3.174-5.057.258-.615.498-1.26.721-1.93 2.324.561 4.486.858 6.38.858 2.268 0 5.28-.455 6.757-2.6 1.092-1.587.834-3.424.425-4.683-.509-1.564-1.552-3.28-3.1-5.1zm-4.082-14.424c1.252 0 3.475.176 4.288 1.358.92 1.336-.02 3.884-2.512 6.815a29.469 29.469 0 01-1.957 2.074 53.488 53.488 0 00-4.45-3.347 43.39 43.39 0 00-1.056-6.117c2.124-.515 4.056-.783 5.687-.783zm-8.429 22.636l-.073-.023a50.345 50.345 0 01-3.23-1.157 67.337 67.337 0 003.954-2.174 38.666 38.666 0 01-.651 3.354zm-2.483-4.652a63.448 63.448 0 01-4.056 2.074 63.898 63.898 0 01-7.547-4.172 50.324 50.324 0 01-.016-7.576 63.425 63.425 0 017.564-4.181 63.513 63.513 0 017.55 4.172 50.348 50.348 0 01.016 7.575 63.098 63.098 0 01-3.511 2.108zm-10.552 4.635a38.73 38.73 0 01-.657-3.313 67.193 67.193 0 003.913 2.15 50.74 50.74 0 01-3.222 1.153l-.034.01zm-4.074-8.825a47.46 47.46 0 01-2.157-1.701 47.31 47.31 0 012.15-1.696 53.244 53.244 0 00.007 3.397zm4.032-12.24c.026.008.051.015.076.024 1.056.337 2.136.723 3.226 1.155a67.248 67.248 0 00-3.951 2.171c.174-1.16.391-2.281.65-3.35zm13.04.012c.26 1.06.48 2.17.657 3.32a67.5 67.5 0 00-3.92-2.154 50.83 50.83 0 013.227-1.155l.036-.011zm4.072 8.827a47.412 47.412 0 012.156 1.7c-.68.57-1.397 1.136-2.15 1.696a53.495 53.495 0 00-.006-3.396zM17.352 8.15c1.448-3.453 3.354-5.517 5.105-5.52 1.745 0 3.66 2.056 5.123 5.505.245.577.474 1.183.686 1.813a55.95 55.95 0 00-5.766 2.176 55.855 55.855 0 00-5.814-2.19c.206-.62.428-1.216.666-1.784zM3.245 12.281c.814-1.182 3.037-1.358 4.29-1.358 1.62 0 3.537.265 5.645.774a43.249 43.249 0 00-1.037 6.14 53.47 53.47 0 00-4.428 3.333 29.434 29.434 0 01-1.957-2.074c-2.493-2.931-3.432-5.479-2.513-6.815zM7.534 35.11c-1.252 0-3.475-.176-4.289-1.358-.919-1.337.02-3.884 2.513-6.815.585-.687 1.24-1.38 1.955-2.073a53.497 53.497 0 004.453 3.35 43.3 43.3 0 001.056 6.112c-2.124.516-4.057.784-5.688.784zm20.114 2.765c-1.448 3.453-3.354 5.512-5.1 5.512h-.004c-1.746 0-3.662-2.051-5.125-5.5a25.487 25.487 0 01-.682-1.803 55.927 55.927 0 005.757-2.172c1.98.87 3.934 1.606 5.816 2.193a25.314 25.314 0 01-.662 1.77zm14.107-4.12c-.814 1.183-3.036 1.364-4.289 1.364-1.62 0-3.54-.267-5.647-.778a43.266 43.266 0 001.037-6.146 53.473 53.473 0 004.428-3.331 29.456 29.456 0 011.958 2.075c2.493 2.931 3.432 5.48 2.513 6.817z" fill="#368CBF"/></svg>
